X:1
T:O Quam Tu Pulchra Es
T:O Quam Tu Pulchra Es
T:Allesandro Grandi (1575–1630)
C:Allesandro Grandi (1575–1630)
%%score 1 { 2 | 3 }
L:1/8
M:4/4
K:D
V:1 treble nm="Voice"
V:2 treble nm="Harpsichord"
V:3 bass 
V:1
 z4 B4- | B4 AGFE | F8 | z4 d4- | d4 =cBAG | A8 | z d d>d d>c c>B | BB/B/ B>B B>A A>G | %8
w: O|_ quam tu pul- chra|es,|O|_ quam tu pul- chra|es,|quam pul- chra es, a- mi- ca|me- a, quam pul- chra es, co- lum- ba|
 GG/A/ A>A A>G G>F | FF z2 B4- | B4 AGFE | !fermata!F8 | z4 F2 GA | BA=cB A4 | GDEF GGAB | %15
w: me- a, quam pul- chra es, for- mo- sa|me- a, O|_ quam tu pul- chra|es.|O- cu- li|tu- i co- lum- ba-|rum, ca- pil- li tu- i si- cut|
 =c2 cB B4 | AEFG AABc | d2 dc c4 | B4 B4- | B4 AGFE | !fermata!F8 |[M:3/4] B4 F2 | G2 G2 A2 | %23
w: gre- ges ca- pra-|rum, et den- tes tu- i si- cut|gre- ges ton- sa-|rum. O|_ quam tu pul- chra|es.|Ve- ni,|ve- ni de|
 F3 F F2 | d4 A2 | B2 B2 =c2 | A3 A A2 | F2 F2 A2 | A4 ^G2 | A2 A2 A2 | A4 ^G2 | A2 A2 A2 | %32
w: Li- ba- no,|ve- ni,|ve- ni de|Li- ba- no,|ve- ni, a-|mi- ca|me- a, co-|lum- ba|me- a, for-|
 A4 ^G2 | A2 A2 z2 |[M:4/4] z4 B4- | B4 AGFE | F2 BA =cBA(G | F<G A<G F3) E | !fermata!E8 | %39
w: mo- sa|me- a.|O|_ quam tu pul- chra|es. Ve- ni, ve- ni co- ro-|* * * * * be-|ris.|
[M:3/4] E4 F2 | G4 A2 | B3 B B2 | D4 D2 | D4 C2 | D4 D2 | A2 A2 A2 | A4 ^G2 | A4 A2 | B2 BB BB | %49
w: Sur- ge,|sur- ge|pro- pe- ra,|sur- ge|spon- sa|me- a,|sur- ge di-|lec- ta|me- a,|sur- ge, im- ma- cu-|
 B4 ^A2 | B4 B2 |[M:4/4] z4 B2 F2 | GFAG F4 | E4 B2 F2 | GFAG F4 | !fermata!E8 | z4 ^G4 | %57
w: la- ta|me- a.|Sur- ge,|ve- ni, ve- ni, ve-|ni, sur- ge,|ve- ni, ve- ni, ve-|ni.|Qui-|
 ^G2 c2 G2 A2 | ^E4 F4- | F4 ^E4 | F8 | z2 D2 D3 C | =C4 B,4- | B,4 ^A,4 | !fermata!B,8 | %65
w: a a- mo- re|lan- *|* que-|o,|a- mo- re|lan- *|* gue-|o.|
 z4 B2 F2 | GFAG F4 | E4 B2 F2 | GFAG F4 | E4 A4 | F4 z2 G2 | G4 E4 | z4 C4 | ^D3 D E4- | E4 ^D4 | %75
w: Sur- ge,|ve- ni, ve- ni, ve-|ni, sur- ge,|ve- ni, ve- ni, ve-|ni, qui-|a a-|mo- re,|a-|mo- re lan-|* ge-|
 !fermata!E8 |] %76
w: o.|
V:2
 [G,B,E]8- | [G,B,E]4 [E,A,E]4 | [F,B,^D]8 | [B,DG]8- | [B,DG]4 [G,=CG]4 | [A,DF]8 | %6
 [DFA]4 [B,DG]2 [A,CF]2 | [B,D]2 [B,DG]2 [B,EG]2 [A,B,F]2 | [G,B,E]2 [A,DA]2 [B,DG]2 [G,CE]2 | %9
 [F,B,-^D]8 | [E,B,E]4 A,4 | !fermata![F,B,^D]8 | [F,B,D]6 [=CF]2 | [B,DG]2 [=CE]2 [A,D]2 F2 | %14
 [B,DG]2 [A,D]2 [G,B,E]2 [A,DF]2 | [=CEG]2 [CEA]2 [B,E]2 ^G2 | [CEA]2 [B,E]2 [A,CF]2 [B,EG]2 | %17
 [DFA]2 [DFB]2 [CF]2 ^A2 | [^DFB]4 [=DGB-]4 | [EB]4 A4 | !fermata![^DFB]8 |[M:3/4] [F,B,^D]4 F2 | %22
 [G,B,E]4 [E,A,E]2 | [F,B,^D]6 | [G,B,D]4 [F,A,D]2 | [G,B,D]4 [G,=CE]2 | [F,A,D]6 | %27
 [F,A,D]4 [E,A,E]2 | [F,A,D]2 [E,B,]2 ^G,2 | [E,A,C]4 [A,E]2 | [A,DF]2 [B,E]2 ^G,2 | %31
 [A,CE]4 [A,EA]2 | [A,DF]2 [B,E]2 ^G,2 | [A,CE]6 |[M:4/4] [B,-DG-]8 | [B,EG]4 [A,EA]4 | %36
 [B,^DF]2 [B,=DG]2 [A,=CE]2 FE | [F,B,^D]2 [G,B,E]2 [F,B,]2 D2 | !fermata![^G,B,E]8 | %39
[M:3/4] [G,B,]4 [F,B,]2 | [G,B,]4 [F,A,D]2 | [G,B,D]6 | [D,G,B,]4 [D,A,]2 | [D,G,B,]4 [C,E,A,]2 | %44
 [D,F,A,]6 | [F,A,D]4 [E,A,E]2 | [F,A,D]4 [E,^G,B,]2 | [E,A,C]4 [A,CE]2 | [B,DG]4 [B,F]2 | %49
 [B,EG]4 [^A,CF]2 | [B,^DF]6 |[M:4/4] [B,F]8 | [G,B,E]2 A,2 [A,=C]2 [F,B,^D]2 | [G,B,E]4 [F,B,F]4 | %54
 [G,B,E]2 A,2 [A,=C]2 [F,B,^D]2 | !fermata![^G,B,E]8 | [^G,C^E]8 | [^E,^G,C]8- | [E,G,C]4 F,4- | %59
 [F,B,]4 ^E,4 | [F,^A,]8 | [D,B,]4 [G,B,D]4 | [G,=CE]4 B,4- | [F,B,C]4 ^A,4 | !fermata![F,B,^D]8 | %65
 z4 [F,B,F]4 | [G,B,E]2 A,2 [A,=C]2 [F,B,^D]2 | [G,B,E]4 [F,B,F]4 | %68
 [G,B,E]2 A,2 [A,=C]2 [F,B,^D]2 | [G,B,E]4 [A,E]4 | [F,A,D]4 [G,D]4- | [G,D]4 [G,E]4 | [A,C]8 | %73
 [^D,F,B,]4 [E,-B,]4 | [E,A,]4 ^D,4 | !fermata![E,^G,]8 |] %76
V:3
 E,8 | =C,8 | B,,8 | G,,8 | E,,8 | D,,8 | D,,4 E,,2 F,,2 | G,,2 B,,2 C,2 ^D,2 | %8
 E,2 F,,2 G,,2 A,,2 | B,,8 | =C,8 | !fermata!B,,8 | B,,6 A,,2 | G,,2 =C,2 D,4 | G,,2 F,,2 E,2 D,2 | %15
 =C,2 A,,2 E,,4 | A,,2 G,,2 F,,2 E,,2 | D,2 B,,2 F,,4 | B,,4 G,,4 | =C,8 | !fermata!B,,8 | %21
[M:3/4] B,,4 ^D,2 | E,4 =C,2 | B,,6 | G,,4 D,2 | G,,4 =C,2 | D,4 D,2 | D,4 C,2 | D,2 E,4 | %29
 A,,4 C,2 | D,2 E,4 | A,,4 C,2 | D,2 E,4 | A,,6 |[M:4/4] G,,8 | =C,8 | B,,2 G,,2 A,,4 | B,,8 | %38
 !fermata!E,,8 |[M:3/4] E,4 ^D,2 | E,4 D,2 | G,,4 G,,2 | G,,4 F,,2 | G,,4 A,,2 | D,,4 D,,2 | %45
 D,4 C,2 | D,4 E,2 | A,,4 A,,2 | G,,4 ^D,,2 | E,,4 F,,2 | B,,4 B,,2 |[M:4/4] ^D,8 | %52
 E,2 =C,2 A,,2 B,,2 | E,,2 E,2 ^D,4 | E,2 =C,2 A,,2 B,,2 | !fermata!E,,8 | C,8- | C,8- | C,4 A,,4 | %59
 ^G,,8 | F,,8 | G,,8 | E,,8 | F,,8 | !fermata!B,,8 | z4 ^D,4 | E,2 =C,2 A,,2 B,,2 | E,,2 E,2 ^D,4 | %68
 E,2 =C,2 A,,2 B,,2 | E,4 C,4 | D,4 B,,4- | B,,4 =C,4 | A,,8- | A,,4 G,,4 | F,,8 | !fermata!E,,8 |] %76

